Yaru++/actions/16/distribute-graph.svg

<svg viewBox="0 0 24 24" xmlns="http://www.w3.org/2000/svg">
  <path d="m8.6875 5.6113281-5 4 .625.7792969 5-4zm1.697266.0703125-.7695316.6386719 4.9999996 5.9999995.769532-.638671zm9.199218.0410156-4 5.9999998.832032.554688 4-6.0000002zm-16.583984 5.2753908v7h1v-7zm1 7v1h6v-1zm10.609375-5.308594-4 5 .78125.623047 4-5zm1.78125 0-.78125.623047 4 5 .78125-.623047z" fill="#808080"/>
  <path d="m9.5 4a1.4999959 1.5 0 0 0 -1.5 1.5 1.4999959 1.5 0 0 0 1.5 1.5 1.4999959 1.5 0 0 0 1.5-1.5 1.4999959 1.5 0 0 0 -1.5-1.5zm11 0a1.4999959 1.5 0 0 0 -1.5 1.5 1.4999959 1.5 0 0 0 1.5 1.5 1.4999959 1.5 0 0 0 1.5-1.5 1.4999959 1.5 0 0 0 -1.5-1.5zm-17 5a1.4999959 1.5 0 0 0 -1.5 1.5 1.4999959 1.5 0 0 0 1.5 1.5 1.4999959 1.5 0 0 0 1.5-1.5 1.4999959 1.5 0 0 0 -1.5-1.5zm12 2a1.4999959 1.5 0 0 0 -1.5 1.5 1.4999959 1.5 0 0 0 1.5 1.5 1.4999959 1.5 0 0 0 1.5-1.5 1.4999959 1.5 0 0 0 -1.5-1.5zm-12 6a1.4999959 1.5 0 0 0 -1.5 1.5 1.4999959 1.5 0 0 0 1.5 1.5 1.4999959 1.5 0 0 0 1.5-1.5 1.4999959 1.5 0 0 0 -1.5-1.5zm7 0a1.4999959 1.5 0 0 0 -1.5 1.5 1.4999959 1.5 0 0 0 1.5 1.5 1.4999959 1.5 0 0 0 1.5-1.5 1.4999959 1.5 0 0 0 -1.5-1.5zm10 0a1.4999959 1.5 0 0 0 -1.5 1.5 1.4999959 1.5 0 0 0 1.5 1.5 1.4999959 1.5 0 0 0 1.5-1.5 1.4999959 1.5 0 0 0 -1.5-1.5z" fill="#0084ff"/>
</svg>

<svg xmlns="http://www.w3.org/2000/svg" viewBox="0 0 24 24">
 <defs>
  <style id="current-color-scheme" type="text/css">
   .ColorScheme-Text { color:#808080; } .ColorScheme-Highlight { color:#1d99f3; }
  </style>
 </defs>
 <path style="fill:currentColor" class="ColorScheme-Text" d="M 8.6875 5.6113281 L 3.6875 9.6113281 L 4.3125 10.390625 L 9.3125 6.390625 L 8.6875 5.6113281 z M 10.384766 5.6816406 L 9.6152344 6.3203125 L 14.615234 12.320312 L 15.384766 11.681641 L 10.384766 5.6816406 z M 19.583984 5.7226562 L 15.583984 11.722656 L 16.416016 12.277344 L 20.416016 6.2773438 L 19.583984 5.7226562 z M 3 10.998047 L 3 17.998047 L 4 17.998047 L 4 10.998047 L 3 10.998047 z M 4 17.998047 L 4 18.998047 L 10 18.998047 L 10 17.998047 L 4 17.998047 z M 14.609375 12.689453 L 10.609375 17.689453 L 11.390625 18.3125 L 15.390625 13.3125 L 14.609375 12.689453 z M 16.390625 12.689453 L 15.609375 13.3125 L 19.609375 18.3125 L 20.390625 17.689453 L 16.390625 12.689453 z"/>
 <path style="fill:currentColor" class="ColorScheme-Highlight" d="M 9.5 4 A 1.4999959 1.5 0 0 0 8 5.5 A 1.4999959 1.5 0 0 0 9.5 7 A 1.4999959 1.5 0 0 0 11 5.5 A 1.4999959 1.5 0 0 0 9.5 4 z M 20.5 4 A 1.4999959 1.5 0 0 0 19 5.5 A 1.4999959 1.5 0 0 0 20.5 7 A 1.4999959 1.5 0 0 0 22 5.5 A 1.4999959 1.5 0 0 0 20.5 4 z M 3.5 9 A 1.4999959 1.5 0 0 0 2 10.5 A 1.4999959 1.5 0 0 0 3.5 12 A 1.4999959 1.5 0 0 0 5 10.5 A 1.4999959 1.5 0 0 0 3.5 9 z M 15.5 11 A 1.4999959 1.5 0 0 0 14 12.5 A 1.4999959 1.5 0 0 0 15.5 14 A 1.4999959 1.5 0 0 0 17 12.5 A 1.4999959 1.5 0 0 0 15.5 11 z M 3.5 17 A 1.4999959 1.5 0 0 0 2 18.5 A 1.4999959 1.5 0 0 0 3.5 20 A 1.4999959 1.5 0 0 0 5 18.5 A 1.4999959 1.5 0 0 0 3.5 17 z M 10.5 17 A 1.4999959 1.5 0 0 0 9 18.5 A 1.4999959 1.5 0 0 0 10.5 20 A 1.4999959 1.5 0 0 0 12 18.5 A 1.4999959 1.5 0 0 0 10.5 17 z M 20.5 17 A 1.4999959 1.5 0 0 0 19 18.5 A 1.4999959 1.5 0 0 0 20.5 20 A 1.4999959 1.5 0 0 0 22 18.5 A 1.4999959 1.5 0 0 0 20.5 17 z"/>
</svg>
